X: 25638
T: Martin Mulvihill's
R: jig
M: 6/8
K: Dmajor
|:F2F GEC|Ddc Ade|f2d cAG|FAF GEC|
FFF GEC|Ddc Ade|f2d cAG|1 Adc dAG:|2 Adc d2A||
|:def g2e|aba ged|fff gfg|agf g2e|
fff gfg|afd cAG|FFF GFG|1 Adc d2A:|2 Adc dAG||

